X:6
T:Bunny's Hat/Edinburgh Rock/Trip to Pakistan
T:Bunny's Hat, The
C:?A Mike McGoldrick Set
M:4/4
K:Bm
|:FABA cBAF|Bcde fedB|FABF A3F|EF3 AB3|
FABA cBAF|Bcde fedB|FABd cA3|faec dBBA:|:
FA B/c/d efaf|efaf edcA|FA B/c/d efaf|edcd AB2A|
FA B/c/d e f3|aefa bafe|dB3 cAce|faec dBcA:|
T:Edinburgh Rock
M:4/4
K:F#dor
|:AFF2 EFAF|AFF2 cecB| AFF2 EFAF|cBB2BAAF|
AFF2 EFBF|AFF2 cecB|AFAB cBAB|ceae f3e:|:
affe cBAF|eff2 afbf|affe cBAF|EFF2 AFce|
affe cecB|AFAB cBAB|cee2 cBAB|ceae f3e:|
T: Trip To Pakistan
M: 4/4
L: 1/8
K: Emin
|:EGBE G3 B|A3 B AGFG|EGBE G3 B|AGFG E4:|
|:EGBG c3 A|B3 d AGFG|EGBG c3 A|BAGB A4:|
|:FGBF GBGF|EFGE FGFE|DFAD FADF|AGFG E4:|

